X:28
T: Ein neues Liedlein, die evangelische Lehre betreffend
N: A0387B
O: Europa, Mitteleuropa, Deutschland
N: Souterliedekens 1540 ad Ps.10.
R: Romanze, Ballade, Lied, religioeses Lied
M: 4/2
L: 1/2
K: C
CCC | D2CF2E | F2z
DEF | G2GDE2 | D2z
E | FEFD | C2B,2z
C | D2DE2C | FEDC- | C2z
G | GGGG | F2D2 |
EDCF2E | D3C3

